X: 33291
T: Put Me In The Big Chest
R: reel
M: 4/4
K: Amajor
EFAB c2 cf|ecBA F/F/F F2|EFAB c cf|ecBc A/A/A A:|
Efec eAAc|efec BABc|efec efaf|ecBc A/A/A A:|

